X: 12350
T: Falls Of Altnarie, The
R: reel
M: 4/4
K: Amajor
|:A,2CE FEEF|AEcB A~E3|F2DF dBBA|GBed BGEC|
A,2CE FEEF|AEcB A~E3|F2DF dBBA|1 GEFG AECB,:|2 GEFG ABcd||
|:eAce feeg|aece fece|f2df bffa|geae begf|
fece feeg|aece fece|f2df ~a2fd|1 edBG ABcd:|2 edBG A4||

